manual-assets/community/dde/common/Alt.svg

<?xml version="1.0" encoding="UTF-8" standalone="no"?>
<!-- Generator: Adobe Illustrator 18.0.0, SVG Export Plug-In . SVG Version: 6.00 Build 0)  -->

<svg
   xmlns:dc="http://purl.org/dc/elements/1.1/"
   xmlns:cc="http://creativecommons.org/ns#"
   xmlns:rdf="http://www.w3.org/1999/02/22-rdf-syntax-ns#"
   xmlns:svg="http://www.w3.org/2000/svg"
   xmlns="http://www.w3.org/2000/svg"
   xmlns:sodipodi="http://sodipodi.sourceforge.net/DTD/sodipodi-0.dtd"
   xmlns:inkscape="http://www.inkscape.org/namespaces/inkscape"
   version="1.1"
   id="图层_1"
   x="0px"
   y="0px"
   viewBox="0 0 30 20"
   enable-background="new 0 0 30 20"
   xml:space="preserve"
   sodipodi:docname="Alt.svg"
   width="30"
   height="20"
   inkscape:version="0.92.1 r15371"><metadata
     id="metadata19"><rdf:RDF><cc:Work
         rdf:about=""><dc:format>image/svg+xml</dc:format><dc:type
           rdf:resource="http://purl.org/dc/dcmitype/StillImage" /><dc:title></dc:title></cc:Work></rdf:RDF></metadata><defs
     id="defs17" /><sodipodi:namedview
     pagecolor="#ffffff"
     bordercolor="#666666"
     borderopacity="1"
     objecttolerance="10"
     gridtolerance="10"
     guidetolerance="10"
     inkscape:pageopacity="0"
     inkscape:pageshadow="2"
     inkscape:window-width="836"
     inkscape:window-height="480"
     id="namedview15"
     showgrid="false"
     fit-margin-top="0"
     fit-margin-left="0"
     fit-margin-right="0"
     fit-margin-bottom="0"
     inkscape:zoom="10.7"
     inkscape:cx="15"
     inkscape:cy="10"
     inkscape:window-x="0"
     inkscape:window-y="0"
     inkscape:window-maximized="0"
     inkscape:current-layer="图层_1" /><g
     id="g12"><path
       d="M 25.667,19.492 H 4.333 C 2.225,19.492 0.5,17.767 0.5,15.659 V 4.325 C 0.5,2.217 2.225,0.492 4.333,0.492 h 21.334 c 2.108,0 3.833,1.725 3.833,3.833 v 11.334 c 0,2.108 -1.725,3.833 -3.833,3.833 z"
       id="path2"
       inkscape:connector-curvature="0"
       style="opacity:0.1;fill:#ffffff" /><path
       stroke-miterlimit="10"
       d="m 25.5,19.5 h -21 c -2.209,0 -4,-1.791 -4,-4 v -11 c 0,-2.209 1.791,-4 4,-4 h 21 c 2.209,0 4,1.791 4,4 v 11 c 0,2.209 -1.791,4 -4,4 z"
       id="path4"
       inkscape:connector-curvature="0"
       style="fill:none;stroke:#cbcbcb;stroke-miterlimit:10" /><path
       d="m 14.455,14 h 1.033 l -3,-9 h -1.033 l -3,9 h 1.033 l 0.667,-2 h 3.633 z M 10.488,11 11.971,6.55 13.455,11 Z"
       id="path6"
       inkscape:connector-curvature="0" /><path
       d="M 16,14 V 5 h 1 v 9 z"
       id="path8"
       inkscape:connector-curvature="0" /><path
       d="m 21,13.811 c 0,0.114 -0.342,0.171 -0.697,0.171 C 19.336,13.982 19,13.447 19,12.376 V 9 H 18 V 8 h 1 V 6.728 L 20,6.425 V 8 h 1 v 1 h -1 v 3.204 c 0,0.355 -0.027,0.612 0.094,0.765 0.121,0.153 0.232,0.227 0.512,0.227 0.215,0 0.394,-0.181 0.394,-0.181 z"
       id="path10"
       inkscape:connector-curvature="0" /></g></svg>

<?xml version="1.0" encoding="UTF-8"?>
<svg width="30px" height="20px" viewBox="0 0 30 20" version="1.1" xmlns="http://www.w3.org/2000/svg" xmlns:xlink="http://www.w3.org/1999/xlink">
    <!-- Generator: Sketch 64 (93537) - https://sketch.com -->
    <title>Alt</title>
    <desc>Created with Sketch.</desc>
    <g id="页面-1" stroke="none" stroke-width="1" fill="none" fill-rule="evenodd">
        <g id="Alt">
            <path d="M25.667,19.492 L4.333,19.492 C2.225,19.492 0.5,17.767 0.5,15.659 L0.5,4.325 C0.5,2.217 2.225,0.492 4.333,0.492 L25.667,0.492 C27.775,0.492 29.5,2.217 29.5,4.325 L29.5,15.659 C29.5,17.767 27.775,19.492 25.667,19.492 L25.667,19.492 Z" id="path2" fill="#FFFFFF" fill-rule="nonzero"></path>
            <path d="M25.5,19.5 L4.5,19.5 C2.291,19.5 0.5,17.709 0.5,15.5 L0.5,4.5 C0.5,2.291 2.291,0.5 4.5,0.5 L25.5,0.5 C27.709,0.5 29.5,2.291 29.5,4.5 L29.5,15.5 C29.5,17.709 27.709,19.5 25.5,19.5 Z" id="path4" stroke="#CBCBCB"></path>
            <path d="M14.455,14 L15.488,14 L12.488,5 L11.455,5 L8.455,14 L9.488,14 L10.155,12 L13.788,12 L14.455,14 Z M10.488,11 L11.971,6.55 L13.455,11 L10.488,11 Z" id="path6" fill="#000000" fill-rule="nonzero"></path>
            <polygon id="path8" fill="#000000" fill-rule="nonzero" points="16 14 16 5 17 5 17 14"></polygon>
            <path d="M21,13.811 C21,13.925 20.658,13.982 20.303,13.982 C19.336,13.982 19,13.447 19,12.376 L19,9 L18,9 L18,8 L19,8 L19,6.728 L20,6.425 L20,8 L21,8 L21,9 L20,9 L20,12.204 C20,12.559 19.973,12.816 20.094,12.969 C20.215,13.122 20.326,13.196 20.606,13.196 C20.821,13.196 21,13.015 21,13.015 L21,13.811 Z" id="path10" fill="#000000" fill-rule="nonzero"></path>
        </g>
    </g>
</svg>
